dist/svg/u1F4E6.svg

<?xml version="1.0" encoding="UTF-8"?><svg id="a" xmlns="http://www.w3.org/2000/svg" viewBox="0 0 40 40"><rect x="0" y="0" width="40" height="40" fill="none"/><g><g><path d="M36.139,14.564h-3.125l-.611-1.323c-.74-1.602-2.343-2.628-4.108-2.628H11.704c-1.765,0-3.368,1.026-4.108,2.628l-.611,1.323H3.861v18.85h.016c.058,1.665,1.412,3.086,3.185,3.086h25.877c1.772,0,3.127-1.421,3.185-3.086h.016V14.564Z" fill="#ffa300" fill-rule="evenodd"/><path d="M32.938,17.994H7.062c-2.09,0-3.619-1.972-3.098-3.996l3.633-7.87c.74-1.602,2.343-2.628,4.108-2.628H28.296c1.765,0,3.368,1.026,4.108,2.628l3.633,7.87c.521,2.024-1.008,3.996-3.098,3.996Z" fill="#ffc33a" fill-rule="evenodd"/><polygon points="22.848 17.994 17.152 17.994 17.537 3.5 22.463 3.5 22.848 17.994" fill="#ffe3a0" fill-rule="evenodd"/></g><rect x="17.152" y="17.994" width="5.731" height="9.529" fill="#ffd06c"/></g></svg>

<svg id="Layer_1" data-name="Layer 1" xmlns="http://www.w3.org/2000/svg" viewBox="0 0 40 40"><defs><style>.cls-1{fill:none;}.cls-2{fill:#ffa300;}.cls-2,.cls-3,.cls-4{fill-rule:evenodd;}.cls-3{fill:#ffc33a;}.cls-4{fill:#ffe3a0;}.cls-5{fill:#ffd06c;}</style></defs><rect class="cls-1" width="40" height="40"/><path class="cls-2" d="M36.139,14.564H33.015L32.4,13.242A4.524,4.524,0,0,0,28.3,10.614H11.7A4.524,4.524,0,0,0,7.6,13.242l-.611,1.322H3.861v18.85h.016A3.192,3.192,0,0,0,7.062,36.5H32.939a3.191,3.191,0,0,0,3.184-3.086h.016Z"/><path class="cls-3" d="M32.938,17.994H7.062a3.2,3.2,0,0,1-3.1-4L7.6,6.128A4.524,4.524,0,0,1,11.7,3.5H28.3A4.524,4.524,0,0,1,32.4,6.128L36.037,14A3.2,3.2,0,0,1,32.938,17.994Z"/><polygon class="cls-4" points="22.848 17.994 17.152 17.994 17.537 3.5 22.463 3.5 22.848 17.994"/><rect class="cls-5" x="17.152" y="17.994" width="5.731" height="9.529"/></svg>
